src/assets/dark/IconAppealInactive.svg

<svg width="44" height="44" viewBox="0 0 44 44" fill="none" xmlns="http://www.w3.org/2000/svg">
<path fill-rule="evenodd" clip-rule="evenodd" d="M22.4956 43.1172C34.3697 43.1172 43.9956 33.4913 43.9956 21.6172C43.9956 9.74306 34.3697 0.117188 22.4956 0.117188C10.6215 0.117188 0.995605 9.74306 0.995605 21.6172C0.995605 33.4913 10.6215 43.1172 22.4956 43.1172Z" fill="url(#paint0_linear)"/>
<path d="M16.7234 18.8202C16.1668 18.2618 15.4106 17.9483 14.6222 17.9492C12.9807 17.9488 11.6496 19.2791 11.6492 20.9206C11.6487 22.5621 12.979 23.8931 14.6205 23.8936C16.262 23.894 17.5931 22.5637 17.5935 20.9222C17.5937 20.1339 17.2807 19.3777 16.7234 18.8202Z" fill="#7465BD" fill-opacity="0.8"/>
<path fill-rule="evenodd" clip-rule="evenodd" d="M14.7418 24.8203H14.426C11.105 24.8286 8.41494 27.5504 8.40674 30.9104V31.3406C8.40674 31.5768 8.59594 31.7682 8.82941 31.7682H20.336C20.5694 31.7682 20.7586 31.5768 20.7586 31.3406V30.9104C20.7491 27.5519 18.0612 24.8314 14.7418 24.8203Z" fill="#7465BD" fill-opacity="0.8"/>
<path d="M21.376 10.1674C23.3759 8.76489 25.7671 8.03085 28.2083 8.06984C30.6496 8.03085 33.0408 8.76489 35.0407 10.1674C36.8523 11.5051 37.974 13.3627 37.974 15.4348C37.974 17.5069 36.8559 19.3682 35.0407 20.7059C33.0408 22.1084 30.6496 22.8425 28.2083 22.8035C27.3401 22.8038 26.4741 22.7161 25.6235 22.5417C24.9058 22.3958 24.2032 22.1827 23.5252 21.9056L19.9601 24.1085C19.7806 24.2218 19.5553 24.234 19.3646 24.141C19.0599 23.9925 18.9332 23.6248 19.0816 23.3197L20.6317 20.0952C20.0149 19.5327 19.5002 18.8673 19.1106 18.1285C18.6747 17.2989 18.4455 16.376 18.4426 15.4385C18.4426 13.3664 19.5608 11.5051 21.376 10.1674ZM28.3432 18.9026C27.8935 18.9026 27.5291 19.2702 27.5291 19.7238C27.5291 20.1774 27.8935 20.5449 28.3432 20.5449C28.7929 20.5449 29.1573 20.1774 29.1573 19.7238C29.1573 19.2702 28.7929 18.9026 28.3432 18.9026ZM28.3432 10.3071C27.9923 10.3071 27.6573 10.4554 27.4201 10.7157C27.1825 10.9763 27.064 11.3252 27.0934 11.6782L27.5985 16.9261L27.6006 16.9473C27.643 17.3275 27.9617 17.6169 28.3432 17.6169C28.7317 17.6169 29.0552 17.3167 29.0879 16.9261L29.593 11.6782L29.5953 11.6461C29.6152 11.3042 29.4966 10.9684 29.2663 10.7157C29.0291 10.4554 28.6941 10.3071 28.3432 10.3071Z" fill="#BDBAD4"/>
<defs>
<linearGradient id="paint0_linear" x1="0.995606" y1="8.79327" x2="45.8419" y2="40.5232" gradientUnits="userSpaceOnUse">
<stop stop-color="#3B3381"/>
<stop offset="1" stop-color="#322773"/>
</linearGradient>
</defs>
</svg>

<svg width="44" height="44" fill="none" xmlns="http://www.w3.org/2000/svg"><path fill-rule="evenodd" clip-rule="evenodd" d="M22.496 43.117c11.874 0 21.5-9.626 21.5-21.5S34.37.117 22.496.117s-21.5 9.626-21.5 21.5 9.625 21.5 21.5 21.5z" fill="url(#paint0_linear)"/><path d="M16.723 18.82a2.972 2.972 0 10-4.204 4.202 2.972 2.972 0 004.204-4.202z" fill="#7465BD" fill-opacity=".8"/><path fill-rule="evenodd" clip-rule="evenodd" d="M14.742 24.82h-.316c-3.321.009-6.011 2.73-6.02 6.09v.43c0 .237.19.428.423.428h11.507a.425.425 0 00.423-.427v-.43c-.01-3.36-2.698-6.08-6.017-6.09z" fill="#7465BD" fill-opacity=".8"/><path d="M21.376 10.167c2-1.402 4.391-2.136 6.832-2.097a11.577 11.577 0 016.833 2.097c1.811 1.338 2.933 3.196 2.933 5.268 0 2.072-1.118 3.933-2.933 5.27a11.577 11.577 0 01-6.833 2.099c-.868 0-1.734-.088-2.584-.262a11.716 11.716 0 01-2.099-.636l-3.565 2.203a.613.613 0 01-.878-.79l1.55-3.224a7.22 7.22 0 01-1.521-1.966 5.822 5.822 0 01-.668-2.69c0-2.073 1.118-3.934 2.933-5.272zm6.967 8.736a.818.818 0 00-.814.82c0 .454.364.822.814.822.45 0 .814-.368.814-.821a.818.818 0 00-.814-.821zm0-8.596c-.35 0-.686.148-.923.409-.238.26-.356.61-.327.962l.506 5.248.002.021a.75.75 0 00.742.67.75.75 0 00.745-.69l.505-5.249.002-.032a1.272 1.272 0 00-.329-.93 1.25 1.25 0 00-.923-.409z" fill="#BDBAD4"/><defs><linearGradient id="paint0_linear" x1=".996" y1="8.793" x2="45.842" y2="40.523" gradientUnits="userSpaceOnUse"><stop stop-color="#3B3381"/><stop offset="1" stop-color="#322773"/></linearGradient></defs></svg>
